svg/aws-ec2-m5a.svg

<?xml version="1.0" encoding="UTF-8"?>
<svg xmlns="http://www.w3.org/2000/svg" xmlns:xlink="http://www.w3.org/1999/xlink" width="32" height="32" viewBox="0 0 32 32">
<path fill-rule="evenodd" fill="rgb(83.137255%, 35.686275%, 2.745098%)" fill-opacity="1" d="M 23.183594 18.164062 C 23.011719 18.300781 22.820312 18.414062 22.617188 18.496094 C 22.441406 18.570312 22.253906 18.609375 22.0625 18.613281 C 21.851562 18.613281 21.683594 18.550781 21.5625 18.429688 C 21.441406 18.308594 21.378906 18.140625 21.378906 17.921875 C 21.378906 17.417969 21.695312 17.164062 22.328125 17.164062 C 22.617188 17.167969 22.902344 17.203125 23.183594 17.269531 Z M 22.097656 16.476562 C 21.539062 16.476562 21.09375 16.613281 20.757812 16.886719 C 20.425781 17.160156 20.261719 17.527344 20.261719 17.988281 C 20.261719 18.402344 20.394531 18.742188 20.667969 19.003906 C 20.9375 19.265625 21.289062 19.394531 21.726562 19.394531 C 21.988281 19.394531 22.25 19.34375 22.515625 19.238281 C 22.78125 19.132812 23.019531 18.984375 23.238281 18.796875 L 23.320312 19.257812 L 24.28125 19.257812 L 24.28125 15.90625 C 24.28125 15.375 24.136719 14.988281 23.839844 14.738281 C 23.546875 14.488281 23.089844 14.367188 22.46875 14.367188 C 22.125 14.367188 21.785156 14.398438 21.445312 14.46875 C 21.109375 14.535156 20.820312 14.628906 20.585938 14.746094 L 20.585938 15.523438 C 21.214844 15.316406 21.773438 15.214844 22.257812 15.214844 C 22.601562 15.214844 22.839844 15.277344 22.976562 15.402344 C 23.113281 15.527344 23.183594 15.746094 23.183594 16.0625 L 23.183594 16.613281 C 22.828125 16.527344 22.464844 16.480469 22.097656 16.476562 M 17.039062 19.394531 C 16.421875 19.394531 15.816406 19.269531 15.25 19.023438 L 15.25 18.144531 C 15.929688 18.375 16.515625 18.492188 17.011719 18.492188 C 17.933594 18.492188 18.394531 18.09375 18.394531 17.296875 C 18.394531 16.910156 18.277344 16.628906 18.046875 16.453125 C 17.8125 16.273438 17.445312 16.183594 16.9375 16.183594 C 16.5625 16.183594 16.089844 16.214844 15.519531 16.277344 L 15.519531 15.570312 L 15.695312 12.789062 L 19.207031 12.789062 L 19.207031 13.675781 L 16.734375 13.675781 L 16.628906 15.402344 C 16.894531 15.351562 17.167969 15.324219 17.441406 15.328125 C 18.085938 15.328125 18.597656 15.5 18.96875 15.847656 C 19.335938 16.199219 19.523438 16.675781 19.523438 17.277344 C 19.523438 17.925781 19.300781 18.4375 18.851562 18.820312 C 18.402344 19.203125 17.800781 19.394531 17.039062 19.394531 M 8.761719 19.257812 L 7.71875 19.257812 L 7.71875 12.789062 L 8.984375 12.789062 L 10.925781 16.644531 L 12.90625 12.789062 L 14.136719 12.789062 L 14.136719 19.257812 L 13.09375 19.257812 L 13.09375 14.410156 L 11.414062 17.632812 L 10.386719 17.632812 L 8.761719 14.429688 Z M 6 26 L 26 26 L 26 6 L 6 6 Z M 30.667969 8.667969 L 30.667969 7.332031 L 27.332031 7.332031 L 27.332031 5.332031 C 27.332031 4.964844 27.035156 4.667969 26.667969 4.667969 L 24.667969 4.667969 L 24.667969 1.332031 L 23.332031 1.332031 L 23.332031 4.667969 L 20.667969 4.667969 L 20.667969 1.332031 L 19.332031 1.332031 L 19.332031 4.667969 L 16.667969 4.667969 L 16.667969 1.332031 L 15.332031 1.332031 L 15.332031 4.667969 L 12.667969 4.667969 L 12.667969 1.332031 L 11.332031 1.332031 L 11.332031 4.667969 L 8.667969 4.667969 L 8.667969 1.332031 L 7.332031 1.332031 L 7.332031 4.667969 L 5.332031 4.667969 C 4.964844 4.667969 4.667969 4.964844 4.667969 5.332031 L 4.667969 7.332031 L 1.332031 7.332031 L 1.332031 8.667969 L 4.667969 8.667969 L 4.667969 11.332031 L 1.332031 11.332031 L 1.332031 12.667969 L 4.667969 12.667969 L 4.667969 15.332031 L 1.332031 15.332031 L 1.332031 16.667969 L 4.667969 16.667969 L 4.667969 19.332031 L 1.332031 19.332031 L 1.332031 20.667969 L 4.667969 20.667969 L 4.667969 23.332031 L 1.332031 23.332031 L 1.332031 24.667969 L 4.667969 24.667969 L 4.667969 26.667969 C 4.667969 27.035156 4.964844 27.332031 5.332031 27.332031 L 7.332031 27.332031 L 7.332031 30.667969 L 8.667969 30.667969 L 8.667969 27.332031 L 11.332031 27.332031 L 11.332031 30.667969 L 12.667969 30.667969 L 12.667969 27.332031 L 15.332031 27.332031 L 15.332031 30.667969 L 16.667969 30.667969 L 16.667969 27.332031 L 19.332031 27.332031 L 19.332031 30.667969 L 20.667969 30.667969 L 20.667969 27.332031 L 23.332031 27.332031 L 23.332031 30.667969 L 24.667969 30.667969 L 24.667969 27.332031 L 26.667969 27.332031 C 27.035156 27.332031 27.332031 27.035156 27.332031 26.667969 L 27.332031 24.667969 L 30.667969 24.667969 L 30.667969 23.332031 L 27.332031 23.332031 L 27.332031 20.667969 L 30.667969 20.667969 L 30.667969 19.332031 L 27.332031 19.332031 L 27.332031 16.667969 L 30.667969 16.667969 L 30.667969 15.332031 L 27.332031 15.332031 L 27.332031 12.667969 L 30.667969 12.667969 L 30.667969 11.332031 L 27.332031 11.332031 L 27.332031 8.667969 Z M 30.667969 8.667969 "/>
</svg>

<svg role="img" viewBox="0 0 32 32" xmlns="http://www.w3.org/2000/svg"><path d="M23.184 18.164a2.3 2.3 0 0 1-.567.332 1.5 1.5 0 0 1-.555.117q-.316 0-.5-.183-.181-.181-.183-.508 0-.757.95-.758a4 4 0 0 1 .855.106Zm-1.086-1.687q-.837 0-1.34.41-.497.41-.496 1.101-.002.622.406 1.016.404.392 1.059.39.39.002.789-.156.396-.159.722-.441l.082.46h.961v-3.35c0-.532-.144-.919-.441-1.169-.293-.25-.75-.37-1.371-.37-.344 0-.684.03-1.024.1q-.506.1-.86.278v.777q.945-.31 1.673-.308.515 0 .719.187.206.187.207.66v.551a4.7 4.7 0 0 0-1.086-.136m-5.059 2.918a4.5 4.5 0 0 1-1.789-.372v-.878q1.019.346 1.762.347 1.383 0 1.383-1.195-.002-.58-.348-.844c-.235-.18-.602-.27-1.11-.27q-.562 0-1.417.094v-.707l.175-2.78h3.512v.886h-2.473l-.105 1.726a4 4 0 0 1 .812-.074c.645 0 1.157.172 1.528.52q.552.527.554 1.43.001.97-.671 1.542c-.45.383-1.051.575-1.813.575m-8.277-.137H7.719v-6.469h1.265l1.942 3.856 1.98-3.856h1.23v6.469h-1.042V14.41l-1.68 3.223h-1.027L8.762 14.43ZM6 26h20V6H6ZM30.668 8.668V7.332h-3.336v-2a.664.664 0 0 0-.664-.664h-2V1.332h-1.336v3.336h-2.664V1.332h-1.336v3.336h-2.664V1.332h-1.336v3.336h-2.664V1.332h-1.336v3.336H8.668V1.332H7.332v3.336h-2a.664.664 0 0 0-.664.664v2H1.332v1.336h3.336v2.664H1.332v1.336h3.336v2.664H1.332v1.336h3.336v2.664H1.332v1.336h3.336v2.664H1.332v1.336h3.336v2c0 .367.297.664.664.664h2v3.336h1.336v-3.336h2.664v3.336h1.336v-3.336h2.664v3.336h1.336v-3.336h2.664v3.336h1.336v-3.336h2.664v3.336h1.336v-3.336h2a.664.664 0 0 0 .664-.664v-2h3.336v-1.336h-3.336v-2.664h3.336v-1.336h-3.336v-2.664h3.336v-1.336h-3.336v-2.664h3.336v-1.336h-3.336V8.668Zm0 0" fill="rgb(83.137256%, 35.686275%, 2.745098%)" fill-rule="evenodd"/></svg>
